X: 5198
T: Britches Full Of Stitches, The
R: polka
M: 2/4
K: Dmajor
|:GA B/A/G|AG BG|G2 BG|AG E2|
G>A BG|AG Bd|GG/A/ GE|ED D2:|
|:d/e/d/c/ dB|A^G AB|g/a/g/f/ ge|dB A2|
d2 dB|A/B/A/^G/ AB/A/|GG/A/ B/A/G|EG D2:|

